X: 27726
T: Morning Lark, The
R: jig
M: 6/8
K: Dmajor
|:B|AFD D2A,|DEF Adc|BGG dGG|BAG BdB|
AFD D2A,|DEF ABc|def gfe|fdc d2:|
|:B|Add fdd|add fdB|Add fdd|edB BdB|
Add fdd|add fdd|~f3 ede|fdc d2:|

